X:1
T:Wayside Waggon, The
M:C|
L:1/8
R:Reel
B:Roche - Collection of Traditional Irish Music, vol. 3 (1927, No. 74, p. 23)
Z:AK/Fiddler's Companion
K:Bb
B2 (bg) fdcB|AFcF dFcF|B2 (bg) fdcB|1 ABce (dB) B2:|2 GABc (dB) B2||
BGFE DEFD|C2 {d}(c=B) cGGA|BGFE DEFD|B,BBc dBBF|
BGFE DEFD|C2 {d}(c=B) cGGA|BGFE DEFD|B,2 Bc dB Bz||

